X: 37979
T: Sparrow, The
R: polka
M: 2/4
K: Dmajor
|FD FA|GE BA|GE cB|AF dc|BG ed|cA de/f/|ge cA|dB AG|
FD FA|GE BA|GE cB|AF dc|BG ed|cA de/f/|ge cA|d2 A2|
de fd|cA A/B/=c|BG B/c/d|AF DE/F/|GE BG|AF D E/F/|GE AF|D2 A2|
de fd|cA A/B/=c|BG B/c/d|AF DE/F/|GE BG|AF D E/F/|GE AF|D2 D2|

